X:1
T:La chauve-souris qui aimait un parapluie, fichier ABC par Bernard Loffet
C:Thomas Fersen
L:1/8
Q:520
M:2/2
K:G
 z6B2 |: [c2A,,2][B2A,2] c2[d2A,2] | [e2A,,2]A,4[B2A,2] | [c2A,,2][B2A,2] c2[d2A,2] | \
 [e2A,,2]A,4[e2A,2] | [e2E,,2][^d2E,2] e2[f2D,2] | [g2E,,2]E,2 f2D,2 | [e2D,,2][d2D,2] d2[B2D,2] | \
 [d2G,,2]G,4[B2G,2] | [c2A,,2][B2A,2] c2[d2A,2] | [e2A,,2]A,4[B2A,2] | [c2A,,2][B2A,2] c2[d2A,2] | \
 [e2A,,2]A,4[e2A,2] | [e2E,,2][^d2E,2] e2[f2D,2] | [g2E,,2]E,2 f2D,2 | [e2D,,2][d2D,2] d2[B2D,2] | \
 [d2G,,2]G,4[c2G,2] | [B2G,,2]G,2 d2G,2 | [c2G,,2]G,2 B2G,2 | [A2A,,2]A,4A,2 | A,,2A,4[e2A,2] | \
 [e2E,,2][^d2E,2] e2[f2A,2] | [g2E,,2]E,4[e2E,2] | [e2E,,2][^d2E,2] e2[f2A,2] | [g2E,,2]E,4[g2E,2] | \
 [g2G,,2][f2] g2[a2C,2] | [b2G,,2]G,2 a2G,2 | [g2G,,2][f2D,2] e2[^d2G,2] | [e2E,,2]E,4[e2E,2] | \
 [e2E,,2][^d2E,2] e2[f2A,2] | [g2E,,2]E,4[e2E,2] | [e2E,,2][^d2E,2] e2[f2A,2] | [g2E,,2]E,4[g2E,2] | \
 [g2G,,2][f2D,2] g2[a2D,2] | [b2G,,2]G,2 a2D,2 | [g2G,,2][f2D,2] e2[^d2G,2] | [e2E,,2]E,4[B2E,2] :| \
W:Created with TablEdit http://www.tabledit.com/ by Bernard Loffet
